SVG_Azure_Grouped/Endpoint/Endpoint Security.svg

<?xml version="1.0" encoding="UTF-8" standalone="no"?>
<!-- Generated by Microsoft Visio, SVG Export Endpoint Security.svg Page-1 -->

<svg
   xmlns:dc="http://purl.org/dc/elements/1.1/"
   xmlns:cc="http://creativecommons.org/ns#"
   xmlns:rdf="http://www.w3.org/1999/02/22-rdf-syntax-ns#"
   xmlns:svg="http://www.w3.org/2000/svg"
   xmlns="http://www.w3.org/2000/svg"
   xmlns:sodipodi="http://sodipodi.sourceforge.net/DTD/sodipodi-0.dtd"
   xmlns:inkscape="http://www.inkscape.org/namespaces/inkscape"
   width="0.78735679in"
   height="0.78736347in"
   viewBox="0 0 56.689597 56.69048"
   xml:space="preserve"
   class="st6"
   version="1.1"
   id="svg45"
   sodipodi:docname="Endpoint Security.svg"
   style="font-size:12px;overflow:visible;color-interpolation-filters:sRGB;fill:none;fill-rule:evenodd;stroke-linecap:square;stroke-miterlimit:3"
   inkscape:version="0.92.5 (2060ec1f9f, 2020-04-08)"><metadata
   id="metadata49"><rdf:RDF><cc:Work
       rdf:about=""><dc:format>image/svg+xml</dc:format><dc:type
         rdf:resource="http://purl.org/dc/dcmitype/StillImage" /></cc:Work></rdf:RDF></metadata><sodipodi:namedview
   pagecolor="#ffffff"
   bordercolor="#666666"
   borderopacity="1"
   objecttolerance="10"
   gridtolerance="10"
   guidetolerance="10"
   inkscape:pageopacity="0"
   inkscape:pageshadow="2"
   inkscape:window-width="640"
   inkscape:window-height="480"
   id="namedview47"
   showgrid="false"
   inkscape:zoom="1.4193119"
   inkscape:cx="37.795128"
   inkscape:cy="37.786193"
   inkscape:window-x="0"
   inkscape:window-y="0"
   inkscape:window-maximized="0"
   inkscape:current-layer="svg45" />
	<style
   type="text/css"
   id="style2">
	<![CDATA[
		.st1 {fill:#5ea0ef;stroke:none;stroke-linecap:butt;stroke-width:34}
		.st2 {fill:#60b0ef;stroke:none;stroke-linecap:butt;stroke-width:34}
		.st3 {fill:url(#grad0-10);stroke:none;stroke-linecap:butt;stroke-width:34}
		.st4 {fill:#0078d4;stroke:none;stroke-linecap:butt;stroke-width:34}
		.st5 {fill:#949494;stroke:none;stroke-linecap:butt;stroke-width:34}
		.st6 {fill:none;fill-rule:evenodd;font-size:12px;overflow:visible;stroke-linecap:square;stroke-miterlimit:3}
	]]>
	</style>

	<defs
   id="Patterns_And_Gradients">
		<linearGradient
   id="grad0-10"
   x1="0"
   y1="68.483009"
   x2="44.606451"
   y2="68.483009"
   gradientTransform="scale(0.9068195,1.1027553)"
   gradientUnits="userSpaceOnUse">
			<stop
   offset="0.18"
   stop-color="#5ea0ef"
   stop-opacity="1"
   id="stop4" />
			<stop
   offset="1"
   stop-color="#0078d4"
   stop-opacity="1"
   id="stop6" />
		</linearGradient>
	</defs>
	<g
   id="g43"
   transform="translate(-34.000441,-34.00382)">
		<title
   id="title10">Page-1</title>
		<g
   id="group20001-1"
   transform="translate(34,-34.0157)">
			<title
   id="title12">Endpoint Security.20001</title>
			<g
   id="group20002-2">
				<title
   id="title14">Sheet.20002</title>
				<g
   id="shape20003-3"
   transform="translate(0,-2.90048)">
					<title
   id="title16">Sheet.20003</title>
					<path
   d="m 44.27,96.14 c 0,14.44 -17.58,26.05 -21.39,28.38 a 1.49359,1.48196 0 0 1 -1.46,0 C 17.57,122.15 0,110.55 0,96.14 V 78.74 A 1.39826,1.38737 0 0 1 1.37,77.38 C 15.03,77 11.85,70.92 22.02,70.92 c 10.17,0 7.09,5.99 20.79,6.3 a 1.39826,1.38737 0 0 1 1.33,1.36 z"
   class="st1"
   id="path18"
   inkscape:connector-curvature="0"
   style="fill:#5ea0ef;stroke:none;stroke-width:34;stroke-linecap:butt" />
				</g>
				<g
   id="shape20004-5"
   transform="translate(1.84316,-5.23555)">
					<title
   id="title21">Sheet.20004</title>
					<path
   d="m 40.58,98.48 c 0,13.24 -16.14,23.87 -19.64,26.04 a 1.27114,1.26124 0 0 1 -1.33,0 C 16.11,122.44 0,111.81 0,98.48 V 82.71 a 1.23936,1.22971 0 0 1 1.11,-1.29 c 12.71,-0.35 9.76,-5.8 19.07,-5.8 9.31,0 6.51,5.45 19.07,5.8 a 1.27114,1.26124 0 0 1 1.27,1.26 z"
   class="st2"
   id="path23"
   inkscape:connector-curvature="0"
   style="fill:#60b0ef;stroke:none;stroke-width:34;stroke-linecap:butt" />
				</g>
				<g
   id="shape20005-7"
   transform="translate(1.90671,-5.13957)">
					<title
   id="title26">Sheet.20005</title>
					<path
   d="M 20.12,100.11 V 75.52 c 9.53,0 6.51,5.46 19.06,5.8 a 1.30292,1.29277 0 0 1 1.27,1.26 v 17.38 z m 0,0 H 0 c 1.27,12.62 16.21,22.39 19.54,24.44 a 1.08047,1.07206 -180 0 0 0.54,0.16 h 0.04 z"
   class="st3"
   id="path28"
   inkscape:connector-curvature="0"
   style="fill:url(#grad0-10);stroke:none;stroke-width:34;stroke-linecap:butt" />
				</g>
				<g
   id="shape20006-11"
   transform="translate(1.90671,-5.13957)">
					<title
   id="title31">Sheet.20006</title>
					<path
   d="m 1.05,81.35 c 12.71,-0.37 9.75,-5.83 19.07,-5.83 v 24.59 H 0 v -17.5 a 1.27114,1.26124 0 0 1 1.05,-1.29 z m 39.4,18.76 H 20.12 v 24.6 a 1.08047,1.07206 -180 0 0 0.54,-0.16 c 3.59,-2.08 18.52,-11.98 19.76,-24.44 z"
   class="st4"
   id="path33"
   inkscape:connector-curvature="0"
   style="fill:#0078d4;stroke:none;stroke-width:34;stroke-linecap:butt" />
				</g>
				<g
   id="shape20007-13"
   transform="translate(28.41)">
					<title
   id="title36">Sheet.20007</title>
					<path
   d="m 16.27,124.14 1.05,-3.4 2,-1.17 3.5,1.51 2.22,-2.27 v -0.34 l -1.59,-3.16 0.96,-2.14 3.49,-1.26 0.38,-0.16 v -3.15 h -0.44 l -3.43,-1.04 -1.15,-1.99 1.5,-3.47 -2.29,-2.21 h -0.26 l -3.17,1.58 -2.23,-0.95 -1.4,-3.84 h -3.18 l -0.15,0.44 -1.05,3.4 -2.23,0.95 -3.75,-1.7 -2.22,2.27 0.22,0.41 1.65,3.15 -0.89,2.21 -3.81,1.42 v 3.15 l 0.44,0.16 3.44,1.04 0.95,2.21 -1.68,3.62 2.32,2.21 0.41,-0.22 3.18,-1.67 2.22,0.88 1.65,4.1 h 3.18 z m -5.18,-10.18 a 4.60789,4.57201 0 1 1 6.36,0 4.57611,4.54048 0 0 1 -6.36,0 z"
   class="st5"
   id="path38"
   inkscape:connector-curvature="0"
   style="fill:#949494;stroke:none;stroke-width:34;stroke-linecap:butt" />
				</g>
			</g>
		</g>
	</g>
</svg>

<?xml version="1.0" encoding="UTF-8" standalone="no"?>
<!DOCTYPE svg PUBLIC "-//W3C//DTD SVG 1.1//EN" "http://www.w3.org/Graphics/SVG/1.1/DTD/svg11.dtd">
<!-- Generated by Microsoft Visio, SVG Export Endpoint Security.svg Page-1 -->
<svg xmlns="http://www.w3.org/2000/svg" xmlns:xlink="http://www.w3.org/1999/xlink" xmlns:ev="http://www.w3.org/2001/xml-events"
		width="1.73185in" height="1.73206in" viewBox="0 0 124.693 124.709" xml:space="preserve" color-interpolation-filters="sRGB"
		class="st6">
	<style type="text/css">
	<![CDATA[
		.st1 {fill:#5ea0ef;stroke:none;stroke-linecap:butt;stroke-width:34}
		.st2 {fill:#60b0ef;stroke:none;stroke-linecap:butt;stroke-width:34}
		.st3 {fill:url(#grad0-10);stroke:none;stroke-linecap:butt;stroke-width:34}
		.st4 {fill:#0078d4;stroke:none;stroke-linecap:butt;stroke-width:34}
		.st5 {fill:#949494;stroke:none;stroke-linecap:butt;stroke-width:34}
		.st6 {fill:none;fill-rule:evenodd;font-size:12px;overflow:visible;stroke-linecap:square;stroke-miterlimit:3}
	]]>
	</style>

	<defs id="Patterns_And_Gradients">
		<linearGradient id="grad0-10" x1="0" y1="0" x2="1" y2="0" gradientTransform="rotate(90 0.5 0.5)">
			<stop offset="0.18" stop-color="#5ea0ef" stop-opacity="1"/>
			<stop offset="1" stop-color="#0078d4" stop-opacity="1"/>
		</linearGradient>
	</defs>
	<g>
		<title>Page-1</title>
		<g id="group19546-1" transform="translate(34,-34.0157)">
			<title>Endpoint Security.19546</title>
			<g id="group19547-2">
				<title>Sheet.19547</title>
				<g id="shape19548-3" transform="translate(0,-2.90048)">
					<title>Sheet.19548</title>
					<path d="M44.27 96.14 C44.27 110.58 26.69 122.19 22.88 124.52 A1.49359 1.48196 0 0 1 21.42 124.52 C17.57 122.15
								 0 110.55 0 96.14 L0 78.74 A1.39826 1.38737 0 0 1 1.37 77.38 C15.03 77 11.85 70.92 22.02 70.92 C32.19
								 70.92 29.11 76.91 42.81 77.22 A1.39826 1.38737 0 0 1 44.14 78.58 L44.27 96.14 Z" class="st1"/>
				</g>
				<g id="shape19549-5" transform="translate(1.84316,-5.23555)">
					<title>Sheet.19549</title>
					<path d="M40.58 98.48 C40.58 111.72 24.44 122.35 20.94 124.52 A1.27114 1.26124 0 0 1 19.61 124.52 C16.11 122.44
								 0 111.81 0 98.48 L0 82.71 A1.23936 1.22971 0 0 1 1.11 81.42 C13.82 81.07 10.87 75.62 20.18 75.62
								 C29.49 75.62 26.69 81.07 39.25 81.42 A1.27114 1.26124 0 0 1 40.52 82.68 L40.58 98.48 Z"
							class="st2"/>
				</g>
				<g id="shape19550-7" transform="translate(1.90671,-5.13957)">
					<title>Sheet.19550</title>
					<path d="M20.12 100.11 L20.12 75.52 C29.65 75.52 26.63 80.98 39.18 81.32 A1.30292 1.29277 0 0 1 40.45 82.58 L40.45
								 99.96 L20.12 100.11 ZM20.12 100.11 L0 100.11 C1.27 112.73 16.21 122.5 19.54 124.55 A1.08047 1.07206
								 -180 0 0 20.08 124.71 L20.12 124.71 L20.12 100.11 Z" class="st3"/>
				</g>
				<g id="shape19551-11" transform="translate(1.90671,-5.13957)">
					<title>Sheet.19551</title>
					<path d="M1.05 81.35 C13.76 80.98 10.8 75.52 20.12 75.52 L20.12 100.11 L0 100.11 L0 82.61 A1.27114 1.26124 0
								 0 1 1.05 81.32 L1.05 81.35 ZM40.45 100.11 L20.12 100.11 L20.12 124.71 A1.08047 1.07206 -180 0 0
								 20.66 124.55 C24.25 122.47 39.18 112.57 40.42 100.11 L40.45 100.11 Z" class="st4"/>
				</g>
				<g id="shape19552-13" transform="translate(28.41,0)">
					<title>Sheet.19552</title>
					<path d="M16.27 124.14 L17.32 120.74 L19.32 119.57 L22.82 121.08 L25.04 118.81 L25.04 118.47 L23.45 115.31 L24.41
								 113.17 L27.9 111.91 L28.28 111.75 L28.28 108.6 L27.84 108.6 L24.41 107.56 L23.26 105.57 L24.76 102.1
								 L22.47 99.89 L22.21 99.89 L19.04 101.47 L16.81 100.52 L15.41 96.68 L12.23 96.68 L12.08 97.12 L11.03
								 100.52 L8.8 101.47 L5.05 99.77 L2.83 102.04 L3.05 102.45 L4.7 105.6 L3.81 107.81 L0 109.23 L0 112.38
								 L0.44 112.54 L3.88 113.58 L4.83 115.79 L3.15 119.41 L5.47 121.62 L5.88 121.4 L9.06 119.73 L11.28
								 120.61 L12.93 124.71 L16.11 124.71 L16.27 124.14 ZM11.09 113.96 A4.60789 4.57201 0 1 1 17.45 113.96
								 A4.57611 4.54048 0 0 1 11.09 113.96 Z" class="st5"/>
				</g>
			</g>
		</g>
	</g>
</svg>
